X:95
T:Reel 95
M:4/4
K:Bmin
L:1/8
cdBc A2BA|FAEG FB,B,2|A|FABc d2cB|AFED CB,B,2:|cAeA fAeA|cAeA cA (3AAA |cffe fcBd|cABc cBB2|cffe fecd|cBec cf (3fed |cffe  (3cde dB|AFEG FB,B,2|
